apps/web/assets/svg/settings.svg

<svg
	width="24"
	height="24"
	viewBox="0 0 24 24"
	fill="none"
	xmlns="http://www.w3.org/2000/svg"
>
	<path
		d="M15.8998 18.45C17.2498 18.45 18.3498 17.35 18.3498 16C18.3498 14.65 17.2498 13.55 15.8998 13.55C14.5398 13.55 13.4498 14.65 13.4498 16C13.4498 17.35 14.5398 18.45 15.8998 18.45M21.0998 16.68L22.5798 17.84C22.7098 17.95 22.7498 18.13 22.6598 18.29L21.2598 20.71C21.2178 20.7822 21.1514 20.837 21.0725 20.8645C20.9937 20.892 20.9076 20.8904 20.8298 20.86L19.0898 20.16C18.7298 20.44 18.3298 20.67 17.9098 20.85L17.6398 22.7C17.6198 22.87 17.4698 23 17.2998 23H14.4998C14.3198 23 14.1798 22.87 14.1498 22.7L13.8898 20.85C13.4598 20.67 13.0698 20.44 12.7098 20.16L10.9598 20.86C10.8098 20.92 10.6198 20.86 10.5398 20.71L9.13978 18.29C9.09718 18.2178 9.08183 18.1327 9.0965 18.0502C9.11117 17.9677 9.1549 17.8931 9.21978 17.84L10.6998 16.68L10.6498 16L10.6998 15.31L9.21978 14.16C9.15525 14.1067 9.11177 14.0321 9.09712 13.9497C9.08247 13.8673 9.09759 13.7823 9.13978 13.71L10.5398 11.29C10.6198 11.13 10.8098 11.07 10.9598 11.13L12.7098 11.84C13.0698 11.56 13.4598 11.32 13.8898 11.15L14.1498 9.29C14.1798 9.13 14.3198 9 14.4998 9H17.2998C17.4698 9 17.6198 9.13 17.6398 9.29L17.9098 11.15C18.3298 11.32 18.7298 11.56 19.0898 11.84L20.8298 11.13C20.9998 11.07 21.1698 11.13 21.2598 11.29L22.6598 13.71C22.7498 13.86 22.7098 14.05 22.5798 14.16L21.0998 15.31L21.1498 16L21.0998 16.68ZM6.68978 8.07C7.55978 8.07 8.25978 7.37 8.25978 6.5C8.25978 5.63 7.55978 4.92 6.68978 4.92C6.27074 4.92 5.86886 5.08646 5.57255 5.38277C5.27624 5.67908 5.10978 6.08096 5.10978 6.5C5.10978 7.37 5.81978 8.07 6.68978 8.07ZM10.0298 6.94L10.9998 7.68C11.0698 7.75 11.0898 7.87 11.0298 7.97L10.1298 9.53C10.0798 9.63 9.95978 9.67 9.85978 9.63L8.73978 9.18L7.99978 9.62L7.80978 10.81C7.78978 10.92 7.69978 11 7.58978 11H5.78978C5.66978 11 5.57978 10.92 5.55978 10.81L5.39978 9.62L4.63978 9.18L3.49978 9.63C3.40978 9.67 3.29978 9.63 3.23978 9.53L2.33978 7.97C2.27978 7.87 2.30978 7.75 2.38978 7.68L3.33978 6.94L3.30978 6.5L3.33978 6.06L2.38978 5.32C2.3487 5.28524 2.32118 5.23712 2.31203 5.18409C2.30289 5.13106 2.31271 5.07651 2.33978 5.03L3.23978 3.47C3.29978 3.37 3.40978 3.33 3.49978 3.37L4.62978 3.82L5.39978 3.38L5.55978 2.19C5.57978 2.08 5.66978 2 5.78978 2H7.58978C7.69978 2 7.78978 2.08 7.80978 2.19L7.99978 3.38L8.73978 3.82L9.85978 3.37C9.95978 3.33 10.0798 3.37 10.1298 3.47L11.0298 5.03C11.0898 5.13 11.0698 5.25 10.9998 5.32L10.0298 6.06L10.0598 6.5L10.0298 6.94V6.94Z"
		fill="currentColor"
	/>
</svg>

<svg xmlns="http://www.w3.org/2000/svg" width="24" height="24" fill="none" viewBox="0 0 24 24"><path fill="currentColor" d="M15.9 18.45c1.35 0 2.45-1.1 2.45-2.45s-1.1-2.45-2.45-2.45c-1.36 0-2.45 1.1-2.45 2.45s1.09 2.45 2.45 2.45m5.2-1.77 1.48 1.16c.13.11.17.29.08.45l-1.4 2.42a.35.35 0 0 1-.43.15l-1.74-.7c-.36.28-.76.51-1.18.69l-.27 1.85c-.02.17-.17.3-.34.3h-2.8c-.18 0-.32-.13-.35-.3l-.26-1.85c-.43-.18-.82-.41-1.18-.69l-1.75.7c-.15.06-.34 0-.42-.15l-1.4-2.42a.351.351 0 0 1 .08-.45l1.48-1.16-.05-.68.05-.69-1.48-1.15a.353.353 0 0 1-.08-.45l1.4-2.42c.08-.16.27-.22.42-.16l1.75.71c.36-.28.75-.52 1.18-.69l.26-1.86c.03-.16.17-.29.35-.29h2.8c.17 0 .32.13.34.29l.27 1.86c.42.17.82.41 1.18.69l1.74-.71c.17-.06.34 0 .43.16l1.4 2.42c.09.15.05.34-.08.45l-1.48 1.15.05.69-.05.68ZM6.69 8.07c.87 0 1.57-.7 1.57-1.57a1.575 1.575 0 1 0-1.57 1.57Zm3.34-1.13.97.74c.07.07.09.19.03.29l-.9 1.56c-.05.1-.17.14-.27.1l-1.12-.45-.74.44-.19 1.19c-.02.11-.11.19-.22.19h-1.8c-.12 0-.21-.08-.23-.19L5.4 9.62l-.76-.44-1.14.45c-.09.04-.2 0-.26-.1l-.9-1.56c-.06-.1-.03-.22.05-.29l.95-.74-.03-.44.03-.44-.95-.74a.229.229 0 0 1-.05-.29l.9-1.56c.06-.1.17-.14.26-.1l1.13.45.77-.44.16-1.19c.02-.11.11-.19.23-.19h1.8c.11 0 .2.08.22.19L8 3.38l.74.44 1.12-.45c.1-.04.22 0 .27.1l.9 1.56c.06.1.04.22-.03.29l-.97.74.03.44-.03.44Z"/></svg>
